X: 38009
T: Speed The Plough
R: reel
M: 4/4
K: Dmajor
|:dcdA BAFB|AFEA (3FED DE|F2AF G2BG|ABde fedc|
dcdA BAFB|AFEA (3FED DE|F2AF G2BG|ABde fdd2:|
|:fa~a2 afdf|g2fg eBBA|fa~a2 afdB|ABde fdd2|
~a3b afdf|g2fg edBA|F2AF G2BG|ABde fdd2:|

